src/img/icons/email.svg

<svg width="32" height="32" viewBox="0 0 32 32" fill="none" xmlns="http://www.w3.org/2000/svg">
<path d="M5.14021 25.5263C4.55225 25.5263 4.04855 25.3166 3.62913 24.8972C3.20971 24.4778 3 23.9741 3 23.3861V7.14021C3 6.55225 3.20971 6.04855 3.62913 5.62913C4.04855 5.20971 4.55225 5 5.14021 5H26.8598C27.4478 5 27.9514 5.20971 28.3709 5.62913C28.7903 6.04855 29 6.55225 29 7.14021V23.3861C29 23.9741 28.7903 24.4778 28.3709 24.8972C27.9514 25.3166 27.4478 25.5263 26.8598 25.5263H5.14021ZM27.2806 8.2719L16.5867 15.2744C16.4909 15.3249 16.3963 15.3672 16.3028 15.4014C16.209 15.4356 16.1081 15.4527 16 15.4527C15.8919 15.4527 15.791 15.4356 15.6972 15.4014C15.6037 15.3672 15.5119 15.3249 15.4218 15.2744L4.71942 8.2719V23.3861C4.71942 23.5088 4.75888 23.6096 4.83779 23.6885C4.9167 23.7674 5.01751 23.8069 5.14021 23.8069H26.8598C26.9825 23.8069 27.0833 23.7674 27.1622 23.6885C27.2411 23.6096 27.2806 23.5088 27.2806 23.3861V8.2719ZM16 13.8578L27.0052 6.71942H5.01739L16 13.8578ZM4.71942 8.54558V7.3075V7.34411V6.71942V7.33247V7.28834V8.54558Z" fill="#131212"/>
</svg>

<svg xmlns="http://www.w3.org/2000/svg" viewBox="0 0 32 32">
  <path fill="currentColor" d="M5.14 25.526a2.06 2.06 0 0 1-1.51-.629 2.06 2.06 0 0 1-.63-1.51V7.14c0-.588.21-1.091.63-1.51.419-.42.922-.63 1.51-.63h21.72c.588 0 1.091.21 1.51.63.42.419.63.922.63 1.51v16.246a2.06 2.06 0 0 1-.63 1.511c-.419.42-.922.63-1.51.63H5.14ZM27.28 8.272l-10.693 7.002c-.096.05-.19.093-.284.127a.877.877 0 0 1-.303.052.877.877 0 0 1-.303-.052 1.892 1.892 0 0 1-.275-.127L4.719 8.272v15.114c0 .123.04.224.119.303a.41.41 0 0 0 .302.118h21.72a.41.41 0 0 0 .302-.118.41.41 0 0 0 .119-.303V8.272ZM16 13.858l11.005-7.139H5.017L16 13.858ZM4.72 8.546V7.308v.036-.625.613-.044 1.258Z"/>
</svg>
